FINK
CUT[VIEL TAUSEND STERNE PRANGEN]
REG[Europa, Mitteleuropa, Deutschland]
KEY[F0989  08 Bb 4/4]
MEL[1__  -7_-5_-4_-6_  -5__-3_
    -2_  -3_-5_1_.1  -7__0_
    -5_  -7_1_2_3_  5_.43_
    2_  1_1_3_.2  2__0_
    -5_  2_1_4_.3  3_2_0_
    2_  3_1_5_.4  3__0_
    3_  3_3_6_.5  5__4_
    2_  1_-5_3_.2  1__.
    -5_  2_1_4_.3  3_2_0_
    2_  3_1_5_.4  3__0_
    3_  3_3_6_.5  5__4_
    2_  1_-5_3_.2  1__ //] >>
FCT[Natur - Lied, Sterne]
